X:7170
T:Honest Thieves. WM113
M:2/4
L:1/16
Q:80
C:*
S:Wm.Mittell,1799
R:March
O:England
A:Kent
N:Would be nice on bagpipes
N:This is present in DR but sufficiently different for me to include it
N:again
D:
H:
Z:C.G.P
W:
K:D
[F4d4] d2f2|[F4d4] e2f2|g-fe-d c-de-c|{e}(dcde) d2A2|[F4d4] d2f2|[F4d4]
e2f2|!gfed cdec|[F4d4] [F4d4] :|
|:[d4a4][d4b4]|[d6a6] d2|c2d2e2f2|(edef) e2e2|![d4a4][d4b4]|[d6a6]d2|c2d
2e2f2|(dcde)d4:|
|:aaaa bbbb|aaaa gggg|!{g}f2e-d c2d2|(edef) e2e2|aaaa bbbb|aaaa gggg|{g}
f2e-d c-dec|[F4d4][F4d4]:|]
%Notes of d in bars 1,5 of B strain should be tied/slurred.
%Draws as intended,but plays back badly wherever there is a double-stopp
%ing.
% To play back correctly it is necessary to remove the double stopping.
